X: 36286
T: Seamus Cooley's
R: jig
M: 6/8
K: Gmajor
|:BAB G2E|D3 DEG|A3 AGE|A3 AGA|
BAB G2E|D3 DEG|A3 AGE|G3 G2A:|
|:BAB d2B|BAB d2B|A3 AGE|ABA AGA|
[1 BAB d2B|BAB d2B|A3 AGE|G3 G2A:|
[2 BAB G2E|D3 DEG|A3 AGE|G3 G2A||

